app/assets/images/icons/ticket-solid.svg

<?xml version="1.0" encoding="UTF-8" standalone="no"?>
<svg width="30px" height="30px" viewBox="0 0 30 30" version="1.1" xmlns="http://www.w3.org/2000/svg" xmlns:xlink="http://www.w3.org/1999/xlink">
    <!-- Generator: Sketch 3.7.2 (28276) - http://www.bohemiancoding.com/sketch -->
    <title>ticket-solid</title>
    <desc>Created with Sketch.</desc>
    <defs></defs>
    <g id="Icons" stroke="none" stroke-width="1" fill="none" fill-rule="evenodd">
        <g id="ticket-solid" fill="#050505">
            <path d="M23.7632395,22.3288083 L24.38533,22.9508989 L29.4058392,17.9303897 C30.1980536,17.1381753 30.1980536,15.8537418 29.4058392,15.0615274 L14.3443118,-5.32907052e-15 C12.7598829,1.58442893 10.191016,1.58442893 8.60658707,-4.88498131e-15 L3.55271368e-15,8.60658707 C1.58442893,10.191016 1.58442893,12.7598829 8.8817842e-15,14.3443118 L15.0615274,29.4058392 C15.8537418,30.1980536 17.1381753,30.1980536 17.9303897,29.4058392 L24.38533,22.9508989 L23.7632395,22.3288083 L23.7632395,22.3288083 L23.7632395,22.3288083 L23.7632395,22.3288083 L23.7632395,22.3288083 L23.7632395,22.3288083 L23.7632395,22.3288083 Z M13.6270962,9.32380266 C14.0232034,8.92769543 14.0232034,8.28547871 13.6270962,7.88937148 C13.230989,7.49326425 12.5887722,7.49326425 12.192665,7.88937148 L11.4754494,8.60658707 C11.0793422,9.0026943 11.0793422,9.64491101 11.4754494,10.0410182 C11.8715567,10.4371255 12.5137734,10.4371255 12.9098806,10.0410182 L13.6270962,9.32380266 L13.6270962,9.32380266 L13.6270962,9.32380266 L13.6270962,9.32380266 L13.6270962,9.32380266 L13.6270962,9.32380266 L13.6270962,9.32380266 L13.6270962,9.32380266 L13.6270962,9.32380266 Z M10.0410182,12.9098806 C10.4371255,12.5137734 10.4371255,11.8715567 10.0410182,11.4754494 C9.64491101,11.0793422 9.0026943,11.0793422 8.60658707,11.4754494 L7.88937148,12.192665 C7.49326425,12.5887722 7.49326425,13.230989 7.88937148,13.6270962 C8.28547871,14.0232034 8.92769543,14.0232034 9.32380266,13.6270962 L10.0410182,12.9098806 L10.0410182,12.9098806 L10.0410182,12.9098806 L10.0410182,12.9098806 L10.0410182,12.9098806 L10.0410182,12.9098806 L10.0410182,12.9098806 L10.0410182,12.9098806 L10.0410182,12.9098806 Z M5.05491923,15.0350818 L4.34781245,15.7421886 L5.76202601,17.1564021 L6.46913279,16.4492954 C6.85965709,16.0587711 6.85965709,15.4256061 6.46913279,15.0350818 C6.0786085,14.6445575 5.44544352,14.6445575 5.05491923,15.0350818 L5.05491923,15.0350818 L5.05491923,15.0350818 L5.05491923,15.0350818 L5.05491923,15.0350818 Z M15.0604806,5.02952044 L15.7675874,4.32241366 L17.1818009,5.73662722 L16.4746942,6.44373401 C16.0841699,6.8342583 15.4510049,6.8342583 15.0604806,6.44373401 C14.6699563,6.05320971 14.6699563,5.42004474 15.0604806,5.02952044 L15.0604806,5.02952044 L15.0604806,5.02952044 L15.0604806,5.02952044 Z" id="Rectangle-94"></path>
        </g>
    </g>
</svg>

<?xml version="1.0" encoding="UTF-8" standalone="no"?>
<svg width="30" height="30" viewBox="0 0 30 30" xmlns="http://www.w3.org/2000/svg">
  <path d="M23.763 22.329l.622.622 5.02-5.02a2.029 2.029 0 0 0 0-2.87L14.346 0a4.057 4.057 0 0 1-5.738 0L0 8.607a4.057 4.057 0 0 1 0 5.737l15.062 15.062a2.029 2.029 0 0 0 2.868 0l6.455-6.455-.622-.622zM13.627 9.324a1.014 1.014 0 0 0-1.434-1.435l-.718.718a1.014 1.014 0 0 0 1.435 1.434l.717-.717zm-3.586 3.586a1.014 1.014 0 1 0-1.434-1.435l-.718.718a1.014 1.014 0 0 0 1.435 1.434l.717-.717zm-4.986 2.125l-.707.707 1.414 1.414.707-.707a1 1 0 0 0-1.414-1.414zM15.06 5.03l.708-.708 1.414 1.415-.707.707A1 1 0 0 1 15.06 5.03z" fill="#050505" fill-rule="evenodd"/>
</svg>
